X: 16590
T: Hand Me Down The Tackle
R: reel
M: 4/4
K: Dmajor
c|:dD D/D/D FDFA|dfaf gfec|dD D/D/D FDFA|GFEF GABc
dD D/D/D FDFA|dfaf gfeg|f2ec dBAF|GFEF GABc:|
|:d2 fd Adfd|d2 ed cdec|d2 fd Adfd|BGEF GABc|
[1 d2 fd Adfd|d2 ed cdeg|f2ec dBAF|GFEF GABc:|
[2 a3 a agfa|gfef g2 ag|fdec dBAF|GFEF GABc||

